X: 31262
T: COTILLION No. 22. PILGRIM tune 2
C:
%R: reel
B: Elias Howe "The Musician's Companion" Part 3 1844 p.126 #2
S: http://imslp.org/wiki/The_Musician's_Companion_(Howe,_Elias)
Z: 2015 John Chambers <jc:trillian.mit.edu>
M: 2/4
L: 1/16
K: G
% - - - - - - - - - - - - - - - - - - - - - - - - - - - - -
(Bc) |\
dBcA Ggfe | eddd d2(cB) | Aced cBAG | FED^C C2 (B=c) |\
dBcA Ggfe | eddd dgfe | dBcA | BGAF | G2B2G2 H|]
(cB) |\
(BA) A4 (Bc) | (ed)d2 dgdB | (BA) A4 Bc | (ed) d4 (ba) |\
gbfa egdf | ceBd AcGB | A2A2 AGAB | G2B2"^D.C."G2 |]
% - - - - - - - - - - Dance description - - - - - - - - - -
%%begintext align
%% First 2 forward and back,
%% cross over,
%% chassa de chassa,
%% cross back,
%% ladies chain,
%% promenade 4.
%% Next 2 forward, &c.
%%endtext
% - - - - - - - - - - - - - - - - - - - - - - - - - - - - -
%%sep 1 1 300
